!! Ludwig van Beethoven, "Variation 3" from
!! "Six Easy Variations on a Swiss Air" (1798) for harpsichord, Opus 183.
!! Kalmus Edition, Score No. 1031; (CGC library) M3.B42 Ser. 16, Vol. 6, p.7
!! Minore.
**kern	**kern	**kern
*M4/4	*M4/4	*M4/4
*f	*f	*f
4r	4r	{4c
=1	=1	=1
{4F	8f	4f
.	8c	.
4En	8g	4g
.	8c	.
4F	8a-	4a-
.	8c	.
4D-}	8f	4f}
.	8c	.
=2	=2	=2
2C	{8a-	2cc
.	8c	.
.	8f	.
.	8c}	.
2CC	{8en	2g
.	8c	.
.	8B-	.
.	8c}	.
=3	=3	=3
2FF	{8A-	2.f
.	8c	.
.	8A-	.
.	8F}	.
8FF	4r	.
8F	.	.
4r	{8a-	4cc
.	8f	.
=4	=4	=4
2r	8an	{4cc
.	8f	.
.	8b-	4dd-
.	8f	.
4r	8cc	4ee-
.	8f	.
4f	8a	4cc}
.	8f}	.
=5	=5	=5
2d-	{8b-	2ff
.	8f	.
.	8b-	.
.	8f}	.
2B-	{8b-	2dd-
.	8f	.
.	8b-	.
.	8f}	.
=6	=6	=6
2.F	{8an	2.cc
.	8f	.
.	8a	.
.	8f	.
.	8a	.
.	8f}	.
{4e-	8cc	{4cc
.	8f	.
=7	=7	=7
4d-	8ff	4ff
.	8f	.
4c	8ee-	4ee-
.	8f	.
4B-	8dd-	4dd-
.	8f	.
4e-	8an	4cc}
.	8f	.
=8	=8	=8
4d-	8b-	{4ff
.	8f	.
4c	8an	4ee-
.	8f	.
4B-	8b-	4dd-}
.	8f	.
4G	8en	{4en
.	8cc	.
=9	=9	=9
4A-	8f	4f
.	8c	.
4En	8g	4g
.	8c	.
4F	8a-	4a-
.	8c	.
4D-	8b-	4b-}
.	8f	.
=10	=10	=10
2C}	{8a-	2cc
.	8c	.
.	8f	.
.	8c}	.
2CC	{8en	2g
.	8c	.
.	8B-	.
.	8c}	.
=11	=11	=11
2FF	{8A-	2.f
.	8c	.
.	8A-	.
.	8F}	.
4F	4r	.
==	==	==
*-	*-	*-
